X:50
T:Jigs simple chords 129
M:3/4
L:1/8
K:G
[d2D,2F,2A,2C2]>[g2G,2B,2D2] dB | GB d[g2G,2B,2D2]f | a2 g[f2A,2C2E2]e | c2 A2<[E2A,2C2E2] | Ee ^d[=dD,F,A,] cA |
FA c2<[f2D,2F,2A,2] | e2>[d2D,2F,2A,2C2] ^cd | ^de ^c[BG,B,=D] =c^c | de f[gG,B,D] dB |
GB d[g2G,2B,2D2]f | a2 g[f2A,2C2E2]e | c2 A2<[E2A,2C2E2] | Ee ^d[=dD,F,A,] cA |
FA c2<[f2D,2F,2A,2] | e2>[d2D,2F,2A,2C2] ^cd | ^de f2<[g2G,2B,2=D2] | g2>[B2G,2B,2D2] c^c |
d2 e[d2G,2B,2D2]B | G2 G[eC,E,G,] ^de | c2 e2<[d2G,2B,2D2] | d2>[B2G,2B,2D2] c^c |
d2 e[d2G,2B,2D2]B | G2 B[A2A,2^C2E2G2]g | f2 e[fD,F,A,C] ed | cB A[BG,B,D] c^c |
d2 e[d2G,2B,2D2]B | G2 G[eC,E,G,] ^de | c2 e2<[d2G,2B,2D2] | d2>[e2C,2E,2G,2] gc' |
b2 a[dG,B,D] gb | a2 g[fD,F,A,C] ed | cB A2<[G2G,2B,2D2] | G2 d[E4C,4E,4G,4] |
D C2<[E2C,2E,2G,2] | E3[F4G,4B,4D4=F4] |E D[F4G,4B,4D4=F4] |E F[GC,E,G,] ed |
cB A[BG,B,D=F] ^AB | f2 B[^A2G,2B,2D2=F2]B | f2 B[AC,E,G,] ^GA | ed c[E4C,4E,4G,4] |
D C2<[E2C,2E,2G,2] | E3[F4G,4B,4D4=F4] |E D[F4G,4B,4D4=F4] |E F[GC,E,G,] ed |
cB A[BG,B,D=F] ^AB | f2 B[B2G,2B,2D2=F2]^f | e2 d2<[c2C,2E,2G,2] |


